!!!SOCIAL_FUNCTION: songs connected with ceremonies
!!!SOCIAL_FUNCTION2: Bear dance
!!!PDT:	1929
!!!LING_GROUP: Caddoan
!!!LANG: Non-Tone
!!!REG: Oklahoma
!!!COM: Anon.
!!!OTL: Bear Dance Song (d)
!!!ODT: <1920//
!!!MPN: Dog Chief [Simond Adams]
!!!MLC: Pawnee, Oklahoma, United States of America
!! Song was recorded either 1919 or 1920.
!!!AGN: monody
!!!AMT: irregular
!!!RWG: Transcribed pitches, durations, and meters are only approximate.
!! Drum not recorded
**kern
*ICvox
*Imale
*clefF4
*k[]
*M2/4
*MM168
8e
8e
=1
4e
4c
*M3/4
=2
4e
4r
8e
8e
*M2/4
=3
4e
4c
=4
4A
4r
*M3/4
=5
4e
4r
4A
*M2/4
=6
4e
4e
=7
4e
4c
*M3/4
=8
4e
4r
8e
8c
=9
4e
4c
4A
=10
16e
8.c
8c
8r
8A
8A
=11
4A
4G
4E
=12
4G
4r
8A~
8G
=13
4A
4G
4E
=14
4G
4r
8E
8E
=15
4E
4E
4C
=16
4E
4r
8D
8D
=17
4D
4C
4AA
=18
2.AA
==
*-
!!!HAO:    The words of the next song were said to mean "I am a
!!!HAO: brave man.  I am acting like a bear."  (The lack of a
!!!HAO: competent interpreter when Dog Chief's songs were
!!!HAO: recorded made it impossible to secure a more
!!!HAO: extended description and translation.)
!!!HTX: [no free translation]
!!!CNT: Pawnee
!!!TXO: Pawnee
!!!OCY: United States
!!!OCL: Frances Densmore
!!!YOR: Frances Densmore, "Pawnee Music"
!!!YOR: Bulletin 93, page 47, No. 20
!!!PPR: Smithsonian Institution, Bureau of American Ethnology
!!!PPR: Government Printing Office
!!!PDT: 1926
!!!PPP: Washington, DC, United States of America
!!!YEC: Electronic Copyright 2000 David Huron
!!!YER: September 2000
!!!YEN: United States of America
!!!ENC: David Huron
!!!RDT: September 3, 2000
!!!EEV: Release 1.0
!!!AIN: vox
